images/50649079.svg

<?xml version="1.0" encoding="UTF-8"?>
<svg xmlns="http://www.w3.org/2000/svg" xmlns:xlink="http://www.w3.org/1999/xlink" width="300pt" height="300pt" viewBox="0 0 300 300" version="1.1">
<defs>
<g>
<symbol overflow="visible" id="glyph0-0">
<path style="stroke:none;" d="M 0.453125 1.59375 L 0.453125 -6.34375 L 4.953125 -6.34375 L 4.953125 1.59375 Z M 0.953125 1.09375 L 4.453125 1.09375 L 4.453125 -5.84375 L 0.953125 -5.84375 Z M 0.953125 1.09375 "/>
</symbol>
<symbol overflow="visible" id="glyph0-1">
<path style="stroke:none;" d="M 3.546875 -5.953125 C 2.898438 -5.953125 2.382812 -5.710938 2 -5.234375 C 1.625 -4.753906 1.4375 -4.101562 1.4375 -3.28125 C 1.4375 -2.445312 1.625 -1.789062 2 -1.3125 C 2.382812 -0.832031 2.898438 -0.59375 3.546875 -0.59375 C 4.191406 -0.59375 4.703125 -0.832031 5.078125 -1.3125 C 5.453125 -1.789062 5.640625 -2.445312 5.640625 -3.28125 C 5.640625 -4.101562 5.453125 -4.753906 5.078125 -5.234375 C 4.703125 -5.710938 4.191406 -5.953125 3.546875 -5.953125 Z M 3.546875 -6.6875 C 4.460938 -6.6875 5.195312 -6.375 5.75 -5.75 C 6.300781 -5.132812 6.578125 -4.3125 6.578125 -3.28125 C 6.578125 -2.238281 6.300781 -1.410156 5.75 -0.796875 C 5.195312 -0.179688 4.460938 0.125 3.546875 0.125 C 2.617188 0.125 1.878906 -0.179688 1.328125 -0.796875 C 0.773438 -1.410156 0.5 -2.238281 0.5 -3.28125 C 0.5 -4.3125 0.773438 -5.132812 1.328125 -5.75 C 1.878906 -6.375 2.617188 -6.6875 3.546875 -6.6875 Z M 3.546875 -6.6875 "/>
</symbol>
<symbol overflow="visible" id="glyph0-2">
<path style="stroke:none;" d="M 0.890625 -6.5625 L 1.765625 -6.5625 L 1.765625 -3.875 L 5 -3.875 L 5 -6.5625 L 5.890625 -6.5625 L 5.890625 0 L 5 0 L 5 -3.125 L 1.765625 -3.125 L 1.765625 0 L 0.890625 0 Z M 0.890625 -6.5625 "/>
</symbol>
<symbol overflow="visible" id="glyph0-3">
<path style="stroke:none;" d="M 0.890625 -6.5625 L 2.078125 -6.5625 L 4.984375 -1.078125 L 4.984375 -6.5625 L 5.84375 -6.5625 L 5.84375 0 L 4.65625 0 L 1.75 -5.484375 L 1.75 0 L 0.890625 0 Z M 0.890625 -6.5625 "/>
</symbol>
<symbol overflow="visible" id="glyph1-0">
<path style="stroke:none;" d="M 0.40625 1.421875 L 0.40625 -5.640625 L 4.40625 -5.640625 L 4.40625 1.421875 Z M 0.84375 0.96875 L 3.953125 0.96875 L 3.953125 -5.1875 L 0.84375 -5.1875 Z M 0.84375 0.96875 "/>
</symbol>
<symbol overflow="visible" id="glyph1-1">
<path style="stroke:none;" d="M 1.53125 -0.671875 L 4.296875 -0.671875 L 4.296875 0 L 0.59375 0 L 0.59375 -0.671875 C 0.882812 -0.972656 1.289062 -1.382812 1.8125 -1.90625 C 2.332031 -2.4375 2.65625 -2.773438 2.78125 -2.921875 C 3.039062 -3.203125 3.21875 -3.441406 3.3125 -3.640625 C 3.414062 -3.835938 3.46875 -4.03125 3.46875 -4.21875 C 3.46875 -4.53125 3.359375 -4.785156 3.140625 -4.984375 C 2.921875 -5.179688 2.640625 -5.28125 2.296875 -5.28125 C 2.046875 -5.28125 1.78125 -5.234375 1.5 -5.140625 C 1.226562 -5.054688 0.9375 -4.925781 0.625 -4.75 L 0.625 -5.546875 C 0.945312 -5.679688 1.242188 -5.78125 1.515625 -5.84375 C 1.796875 -5.90625 2.050781 -5.9375 2.28125 -5.9375 C 2.882812 -5.9375 3.363281 -5.785156 3.71875 -5.484375 C 4.082031 -5.179688 4.265625 -4.78125 4.265625 -4.28125 C 4.265625 -4.039062 4.21875 -3.8125 4.125 -3.59375 C 4.03125 -3.375 3.867188 -3.117188 3.640625 -2.828125 C 3.566406 -2.753906 3.351562 -2.535156 3 -2.171875 C 2.65625 -1.816406 2.164062 -1.316406 1.53125 -0.671875 Z M 1.53125 -0.671875 "/>
</symbol>
</g>
</defs>
<g id="surface12105">
<rect x="0" y="0" width="300" height="300" style="fill:rgb(100%,100%,100%);fill-opacity:1;stroke:none;"/>
<path style="fill:none;stroke-width:1.2;stroke-linecap:butt;stroke-linejoin:miter;stroke:rgb(100%,0%,0%);stroke-opacity:1;stroke-miterlimit:10;" d="M 119.71875 212.320312 L 114.601562 203.355469 "/>
<path style="fill:none;stroke-width:1.2;stroke-linecap:butt;stroke-linejoin:miter;stroke:rgb(0%,0%,0%);stroke-opacity:1;stroke-miterlimit:10;" d="M 114.601562 203.355469 L 109.484375 194.390625 "/>
<path style=" stroke:none;fill-rule:nonzero;fill:rgb(100%,100%,100%);fill-opacity:1;" d="M 112.71875 206.820312 L 127.71875 206.820312 L 127.71875 217.820312 L 112.71875 217.820312 Z M 112.71875 206.820312 "/>
<g style="fill:rgb(100%,0%,0%);fill-opacity:1;">
  <use xlink:href="#glyph0-1" x="112.71875" y="215.483398"/>
  <use xlink:href="#glyph0-2" x="120.060547" y="215.483398"/>
</g>
<path style="fill:none;stroke-width:1.2;stroke-linecap:butt;stroke-linejoin:miter;stroke:rgb(0%,0%,0%);stroke-opacity:1;stroke-miterlimit:10;" d="M 109.484375 194.390625 L 88.839844 194.289062 "/>
<path style="fill:none;stroke-width:1.2;stroke-linecap:butt;stroke-linejoin:miter;stroke:rgb(0%,0%,0%);stroke-opacity:1;stroke-miterlimit:10;" d="M 107.445312 189.523438 L 90.929688 189.441406 "/>
<path style="fill:none;stroke-width:1.2;stroke-linecap:butt;stroke-linejoin:miter;stroke:rgb(0%,0%,0%);stroke-opacity:1;stroke-miterlimit:10;" d="M 119.894531 176.5625 L 109.484375 194.390625 "/>
<path style="fill:none;stroke-width:1.2;stroke-linecap:butt;stroke-linejoin:miter;stroke:rgb(0%,0%,0%);stroke-opacity:1;stroke-miterlimit:10;" d="M 88.839844 194.289062 L 78.605469 176.359375 "/>
<path style="fill:none;stroke-width:1.2;stroke-linecap:butt;stroke-linejoin:miter;stroke:rgb(0%,0%,0%);stroke-opacity:1;stroke-miterlimit:10;" d="M 78.605469 176.359375 L 89.015625 158.535156 "/>
<path style="fill:none;stroke-width:1.2;stroke-linecap:butt;stroke-linejoin:miter;stroke:rgb(0%,0%,0%);stroke-opacity:1;stroke-miterlimit:10;" d="M 83.84375 177.027344 L 92.171875 162.765625 "/>
<path style="fill:none;stroke-width:1.2;stroke-linecap:butt;stroke-linejoin:miter;stroke:rgb(0%,0%,0%);stroke-opacity:1;stroke-miterlimit:10;" d="M 89.015625 158.535156 L 83.898438 149.570312 "/>
<path style="fill:none;stroke-width:1.2;stroke-linecap:butt;stroke-linejoin:miter;stroke:rgb(0%,0%,100%);stroke-opacity:1;stroke-miterlimit:10;" d="M 83.898438 149.570312 L 78.78125 140.605469 "/>
<path style="fill:none;stroke-width:1.2;stroke-linecap:butt;stroke-linejoin:miter;stroke:rgb(0%,0%,0%);stroke-opacity:1;stroke-miterlimit:10;" d="M 89.015625 158.535156 L 109.660156 158.632812 "/>
<path style="fill:none;stroke-width:1.2;stroke-linecap:butt;stroke-linejoin:miter;stroke:rgb(0%,0%,100%);stroke-opacity:1;stroke-miterlimit:10;" d="M 78.78125 140.605469 L 68.523438 139.476562 "/>
<path style="fill:none;stroke-width:1.2;stroke-linecap:butt;stroke-linejoin:miter;stroke:rgb(0%,0%,0%);stroke-opacity:1;stroke-miterlimit:10;" d="M 68.523438 139.476562 L 58.261719 138.347656 "/>
<path style="fill:none;stroke-width:1.2;stroke-linecap:butt;stroke-linejoin:miter;stroke:rgb(0%,0%,0%);stroke-opacity:1;stroke-miterlimit:10;" d="M 87.269531 121.789062 L 83.027344 131.195312 "/>
<path style="fill:none;stroke-width:1.2;stroke-linecap:butt;stroke-linejoin:miter;stroke:rgb(0%,0%,100%);stroke-opacity:1;stroke-miterlimit:10;" d="M 83.027344 131.195312 L 78.78125 140.605469 "/>
<path style=" stroke:none;fill-rule:nonzero;fill:rgb(100%,100%,100%);fill-opacity:1;" d="M 75.78125 135.105469 L 82.78125 135.105469 L 82.78125 146.105469 L 75.78125 146.105469 Z M 75.78125 135.105469 "/>
<g style="fill:rgb(0%,0%,100%);fill-opacity:1;">
  <use xlink:href="#glyph0-3" x="75.78125" y="143.768555"/>
</g>
<path style="fill:none;stroke-width:1.2;stroke-linecap:butt;stroke-linejoin:miter;stroke:rgb(0%,0%,0%);stroke-opacity:1;stroke-miterlimit:10;" d="M 58.261719 138.347656 L 54.066406 118.132812 "/>
<path style="fill:none;stroke-width:1;stroke-linecap:butt;stroke-linejoin:miter;stroke:rgb(0%,0%,0%);stroke-opacity:1;stroke-miterlimit:10;" d="M 54.066406 118.132812 L 54.066406 118.132812 M 51.589844 116.445312 L 51.160156 117.394531 M 49.109375 114.753906 L 48.253906 116.652344 M 46.632812 113.0625 L 45.347656 115.914062 M 44.152344 111.375 L 42.4375 115.175781 M 41.675781 109.683594 L 39.53125 114.4375 M 39.195312 107.992188 L 36.625 113.695312 M 36.746094 106.324219 L 33.753906 112.964844 "/>
<path style="fill:none;stroke-width:1.2;stroke-linecap:butt;stroke-linejoin:miter;stroke:rgb(0%,0%,0%);stroke-opacity:1;stroke-miterlimit:10;" d="M 54.066406 118.132812 L 71.996094 107.898438 "/>
<path style=" stroke:none;fill-rule:nonzero;fill:rgb(100%,100%,100%);fill-opacity:1;" d="M 20.25 104.144531 L 35.25 104.144531 L 35.25 115.144531 L 20.25 115.144531 Z M 20.25 104.144531 "/>
<g style="fill:rgb(100%,0%,0%);fill-opacity:1;">
  <use xlink:href="#glyph0-2" x="20.25" y="112.807617"/>
  <use xlink:href="#glyph0-1" x="27.264648" y="112.807617"/>
</g>
<path style=" stroke:none;fill-rule:nonzero;fill:rgb(0%,0%,0%);fill-opacity:1;" d="M 71.996094 107.898438 L 77.875 87.777344 L 70.632812 86.980469 Z M 71.996094 107.898438 "/>
<path style="fill:none;stroke-width:1.2;stroke-linecap:butt;stroke-linejoin:miter;stroke:rgb(0%,0%,0%);stroke-opacity:1;stroke-miterlimit:10;" d="M 71.996094 107.898438 L 87.269531 121.789062 "/>
<path style=" stroke:none;fill-rule:nonzero;fill:rgb(100%,100%,100%);fill-opacity:1;" d="M 67.253906 81.878906 L 82.253906 81.878906 L 82.253906 92.878906 L 67.253906 92.878906 Z M 67.253906 81.878906 "/>
<g style="fill:rgb(100%,0%,0%);fill-opacity:1;">
  <use xlink:href="#glyph0-1" x="67.253906" y="90.541992"/>
  <use xlink:href="#glyph0-2" x="74.595703" y="90.541992"/>
</g>
<path style="fill:none;stroke-width:1.2;stroke-linecap:butt;stroke-linejoin:miter;stroke:rgb(0%,0%,0%);stroke-opacity:1;stroke-miterlimit:10;" d="M 109.660156 158.632812 L 119.894531 176.5625 "/>
<path style="fill:none;stroke-width:1.2;stroke-linecap:butt;stroke-linejoin:miter;stroke:rgb(0%,0%,0%);stroke-opacity:1;stroke-miterlimit:10;" d="M 106.464844 162.835938 L 114.652344 177.179688 "/>
<path style="fill:none;stroke-width:1.2;stroke-linecap:butt;stroke-linejoin:miter;stroke:rgb(0%,0%,0%);stroke-opacity:1;stroke-miterlimit:10;" d="M 119.894531 176.5625 L 140.539062 176.664062 "/>
<path style="fill:none;stroke-width:1.2;stroke-linecap:butt;stroke-linejoin:miter;stroke:rgb(0%,0%,0%);stroke-opacity:1;stroke-miterlimit:10;" d="M 140.539062 176.664062 L 145.65625 185.628906 "/>
<path style="fill:none;stroke-width:1.2;stroke-linecap:butt;stroke-linejoin:miter;stroke:rgb(0%,0%,100%);stroke-opacity:1;stroke-miterlimit:10;" d="M 145.65625 185.628906 L 150.773438 194.59375 "/>
<path style="fill:none;stroke-width:1.2;stroke-linecap:butt;stroke-linejoin:miter;stroke:rgb(0%,0%,0%);stroke-opacity:1;stroke-miterlimit:10;" d="M 145.78125 176.046875 L 149.875 183.21875 "/>
<path style="fill:none;stroke-width:1.2;stroke-linecap:butt;stroke-linejoin:miter;stroke:rgb(0%,0%,100%);stroke-opacity:1;stroke-miterlimit:10;" d="M 149.875 183.21875 L 153.96875 190.390625 "/>
<path style="fill:none;stroke-width:1.2;stroke-linecap:butt;stroke-linejoin:miter;stroke:rgb(0%,0%,0%);stroke-opacity:1;stroke-miterlimit:10;" d="M 150.949219 158.835938 L 140.539062 176.664062 "/>
<path style="fill:none;stroke-width:1.2;stroke-linecap:butt;stroke-linejoin:miter;stroke:rgb(0%,0%,100%);stroke-opacity:1;stroke-miterlimit:10;" d="M 150.773438 194.59375 L 161.09375 194.640625 "/>
<path style="fill:none;stroke-width:1.2;stroke-linecap:butt;stroke-linejoin:miter;stroke:rgb(0%,0%,0%);stroke-opacity:1;stroke-miterlimit:10;" d="M 161.09375 194.640625 L 171.417969 194.691406 "/>
<path style=" stroke:none;fill-rule:nonzero;fill:rgb(100%,100%,100%);fill-opacity:1;" d="M 147.773438 189.09375 L 154.773438 189.09375 L 154.773438 200.09375 L 147.773438 200.09375 Z M 147.773438 189.09375 "/>
<g style="fill:rgb(0%,0%,100%);fill-opacity:1;">
  <use xlink:href="#glyph0-3" x="147.773438" y="197.756836"/>
</g>
<path style="fill:none;stroke-width:1.2;stroke-linecap:butt;stroke-linejoin:miter;stroke:rgb(0%,0%,0%);stroke-opacity:1;stroke-miterlimit:10;" d="M 171.417969 194.691406 L 176.621094 185.777344 "/>
<path style="fill:none;stroke-width:1.2;stroke-linecap:butt;stroke-linejoin:miter;stroke:rgb(0%,0%,100%);stroke-opacity:1;stroke-miterlimit:10;" d="M 176.621094 185.777344 L 181.824219 176.867188 "/>
<path style="fill:none;stroke-width:1.2;stroke-linecap:butt;stroke-linejoin:miter;stroke:rgb(0%,0%,0%);stroke-opacity:1;stroke-miterlimit:10;" d="M 168.261719 190.460938 L 172.425781 183.328125 "/>
<path style="fill:none;stroke-width:1.2;stroke-linecap:butt;stroke-linejoin:miter;stroke:rgb(0%,0%,100%);stroke-opacity:1;stroke-miterlimit:10;" d="M 172.425781 183.328125 L 176.589844 176.199219 "/>
<path style="fill:none;stroke-width:1.2;stroke-linecap:butt;stroke-linejoin:miter;stroke:rgb(0%,0%,0%);stroke-opacity:1;stroke-miterlimit:10;" d="M 171.417969 194.691406 L 176.535156 203.65625 "/>
<path style="fill:none;stroke-width:1.2;stroke-linecap:butt;stroke-linejoin:miter;stroke:rgb(0%,0%,100%);stroke-opacity:1;stroke-miterlimit:10;" d="M 176.535156 203.65625 L 181.652344 212.621094 "/>
<path style="fill:none;stroke-width:1.2;stroke-linecap:butt;stroke-linejoin:miter;stroke:rgb(0%,0%,100%);stroke-opacity:1;stroke-miterlimit:10;" d="M 181.824219 176.867188 L 176.707031 167.902344 "/>
<path style="fill:none;stroke-width:1.2;stroke-linecap:butt;stroke-linejoin:miter;stroke:rgb(0%,0%,0%);stroke-opacity:1;stroke-miterlimit:10;" d="M 176.707031 167.902344 L 171.589844 158.9375 "/>
<path style=" stroke:none;fill-rule:nonzero;fill:rgb(100%,100%,100%);fill-opacity:1;" d="M 178.824219 171.367188 L 185.824219 171.367188 L 185.824219 182.367188 L 178.824219 182.367188 Z M 178.824219 171.367188 "/>
<g style="fill:rgb(0%,0%,100%);fill-opacity:1;">
  <use xlink:href="#glyph0-3" x="178.824219" y="180.030273"/>
</g>
<path style="fill:none;stroke-width:1.2;stroke-linecap:butt;stroke-linejoin:miter;stroke:rgb(0%,0%,0%);stroke-opacity:1;stroke-miterlimit:10;" d="M 171.589844 158.9375 L 150.949219 158.835938 "/>
<path style="fill:none;stroke-width:1.2;stroke-linecap:butt;stroke-linejoin:miter;stroke:rgb(0%,0%,0%);stroke-opacity:1;stroke-miterlimit:10;" d="M 169.503906 163.785156 L 152.988281 163.703125 "/>
<path style="fill:none;stroke-width:1.2;stroke-linecap:butt;stroke-linejoin:miter;stroke:rgb(0%,0%,0%);stroke-opacity:1;stroke-miterlimit:10;" d="M 171.589844 158.9375 L 182 141.109375 "/>
<path style="fill:none;stroke-width:1.2;stroke-linecap:butt;stroke-linejoin:miter;stroke:rgb(0%,0%,0%);stroke-opacity:1;stroke-miterlimit:10;" d="M 182 141.109375 L 202.644531 141.210938 "/>
<path style="fill:none;stroke-width:1.2;stroke-linecap:butt;stroke-linejoin:miter;stroke:rgb(0%,0%,0%);stroke-opacity:1;stroke-miterlimit:10;" d="M 202.644531 141.210938 L 213.054688 123.382812 "/>
<path style="fill:none;stroke-width:1.2;stroke-linecap:butt;stroke-linejoin:miter;stroke:rgb(0%,0%,0%);stroke-opacity:1;stroke-miterlimit:10;" d="M 213.054688 123.382812 L 233.695312 123.484375 "/>
<path style="fill:none;stroke-width:1.2;stroke-linecap:butt;stroke-linejoin:miter;stroke:rgb(0%,0%,0%);stroke-opacity:1;stroke-miterlimit:10;" d="M 233.695312 123.484375 L 244.105469 105.65625 "/>
<path style="fill:none;stroke-width:1.2;stroke-linecap:butt;stroke-linejoin:miter;stroke:rgb(0%,0%,0%);stroke-opacity:1;stroke-miterlimit:10;" d="M 244.105469 105.65625 L 264.75 105.757812 "/>
<path style=" stroke:none;fill-rule:nonzero;fill:rgb(100%,100%,100%);fill-opacity:1;" d="M 172.652344 204.621094 L 191.652344 204.621094 L 191.652344 220.621094 L 172.652344 220.621094 Z M 172.652344 204.621094 "/>
<g style="fill:rgb(0%,0%,100%);fill-opacity:1;">
  <use xlink:href="#glyph0-3" x="172.652344" y="213.28418"/>
  <use xlink:href="#glyph0-2" x="179.629883" y="213.28418"/>
</g>
<g style="fill:rgb(0%,0%,100%);fill-opacity:1;">
  <use xlink:href="#glyph1-1" x="186.644531" y="218.166992"/>
</g>
</g>
</svg>

<svg xmlns="http://www.w3.org/2000/svg" xmlns:xlink="http://www.w3.org/1999/xlink" width="300pt" height="300pt" viewBox="0 0 300 300"><defs><symbol overflow="visible"><path d="M.453 1.594v-7.938h4.5v7.938zm.5-.5h3.5v-6.938h-3.5zm0 0"/></symbol><symbol overflow="visible" id="a"><path d="M3.547-5.953c-.65 0-1.164.242-1.547.72-.375.48-.563 1.13-.563 1.952 0 .835.188 1.49.563 1.967.383.48.898.72 1.547.72.644 0 1.156-.24 1.53-.72.376-.476.564-1.132.564-1.968 0-.822-.187-1.474-.562-1.954-.375-.477-.887-.72-1.53-.72zm0-.734c.914 0 1.648.312 2.203.937.55.617.828 1.438.828 2.47 0 1.042-.277 1.87-.828 2.483-.555.617-1.29.922-2.203.922-.93 0-1.668-.305-2.22-.922C.774-1.41.5-2.237.5-3.28c0-1.033.273-1.853.828-2.47.55-.625 1.29-.938 2.22-.938zm0 0"/></symbol><symbol overflow="visible" id="b"><path d="M.89-6.563h.876v2.688H5v-2.688h.89V0H5v-3.125H1.766V0H.89zm0 0"/></symbol><symbol overflow="visible" id="c"><path d="M.89-6.563H2.08l2.906 5.485v-5.484h.86V0H4.656L1.75-5.484V0H.89zm0 0"/></symbol><symbol overflow="visible"><path d="M.406 1.422V-5.64h4V1.42zM.844.97h3.11v-6.157H.843zm0 0"/></symbol><symbol overflow="visible" id="d"><path d="M1.53-.672h2.767V0H.594v-.672c.29-.3.695-.71 1.22-1.234.518-.532.842-.867.967-1.016.26-.28.44-.52.533-.72.1-.194.156-.39.156-.577 0-.31-.11-.565-.33-.764-.218-.196-.5-.297-.843-.297-.25 0-.516.046-.797.14-.273.085-.563.214-.875.39v-.797c.32-.133.617-.234.89-.297.282-.062.536-.093.766-.093.603 0 1.083.152 1.44.453.362.304.546.703.546 1.203 0 .24-.047.468-.14.686-.095.22-.26.477-.485.766-.074.074-.288.293-.64.656-.344.356-.836.856-1.47 1.5zm0 0"/></symbol></defs><g><path fill="#fff" d="M0 0h300v300H0z"/><path d="M119.72 212.32l-5.118-8.965" stroke-width="1.2" stroke="#f00" stroke-miterlimit="10" fill="none"/><path d="M114.602 203.355l-5.118-8.964" stroke-width="1.2" stroke="#000" stroke-miterlimit="10" fill="none"/><path d="M112.72 206.82h15v11h-15zm0 0" fill="#fff"/><g fill="#f00"><use xlink:href="#a" x="112.719" y="215.483"/><use xlink:href="#b" x="120.061" y="215.483"/></g><path d="M109.484 194.39l-20.644-.1M107.445 189.523l-16.515-.082M119.895 176.563l-10.41 17.828M88.84 194.29l-10.235-17.93M78.605 176.36l10.41-17.825M83.844 177.027l8.328-14.26M89.016 158.535l-5.118-8.965" stroke-width="1.2" stroke="#000" stroke-miterlimit="10" fill="none"/><path d="M83.898 149.57l-5.117-8.965" stroke-width="1.2" stroke="#00f" stroke-miterlimit="10" fill="none"/><path d="M89.016 158.535l20.644.098" stroke-width="1.2" stroke="#000" stroke-miterlimit="10" fill="none"/><path d="M78.78 140.605l-10.257-1.128" stroke-width="1.2" stroke="#00f" stroke-miterlimit="10" fill="none"/><path d="M68.523 139.477l-10.26-1.13M87.27 121.79l-4.243 9.405" stroke-width="1.2" stroke="#000" stroke-miterlimit="10" fill="none"/><path d="M83.027 131.195l-4.246 9.41" stroke-width="1.2" stroke="#00f" stroke-miterlimit="10" fill="none"/><path d="M75.78 135.105h7v11h-7zm0 0" fill="#fff"/><use xlink:href="#c" x="75.781" y="143.769" fill="#00f"/><path d="M58.262 138.348l-4.196-20.215" stroke-width="1.2" stroke="#000" stroke-miterlimit="10" fill="none"/><path d="M54.066 118.133m-2.476-1.688l-.43.95m-2.05-2.64l-.856 1.897m-1.62-3.59l-1.286 2.852m-1.196-4.54l-1.715 3.802m-.76-5.492l-2.146 4.754m-.335-6.446l-2.57 5.703m.12-7.37l-2.99 6.64" stroke="#000" stroke-miterlimit="10" fill="none"/><path d="M54.066 118.133l17.93-10.235" stroke-width="1.2" stroke="#000" stroke-miterlimit="10" fill="none"/><path d="M20.25 104.145h15v11h-15zm0 0" fill="#fff"/><g fill="#f00"><use xlink:href="#b" x="20.25" y="112.808"/><use xlink:href="#a" x="27.265" y="112.808"/></g><path d="M71.996 107.898l5.88-20.12-7.243-.798zm0 0"/><path d="M71.996 107.898l15.274 13.89" stroke-width="1.2" stroke="#000" stroke-miterlimit="10" fill="none"/><path d="M67.254 81.88h15v11h-15zm0 0" fill="#fff"/><g fill="#f00"><use xlink:href="#a" x="67.254" y="90.542"/><use xlink:href="#b" x="74.596" y="90.542"/></g><path d="M109.66 158.633l10.235 17.93M106.465 162.836l8.187 14.344M119.895 176.563l20.644.1M140.54 176.664l5.116 8.965" stroke-width="1.2" stroke="#000" stroke-miterlimit="10" fill="none"/><path d="M145.656 185.63l5.117 8.964" stroke-width="1.2" stroke="#00f" stroke-miterlimit="10" fill="none"/><path d="M145.78 176.047l4.095 7.172" stroke-width="1.2" stroke="#000" stroke-miterlimit="10" fill="none"/><path d="M149.875 183.22l4.094 7.17" stroke-width="1.2" stroke="#00f" stroke-miterlimit="10" fill="none"/><path d="M150.95 158.836l-10.41 17.828" stroke-width="1.2" stroke="#000" stroke-miterlimit="10" fill="none"/><path d="M150.773 194.594l10.32.047" stroke-width="1.2" stroke="#00f" stroke-miterlimit="10" fill="none"/><path d="M161.094 194.64l10.324.05" stroke-width="1.2" stroke="#000" stroke-miterlimit="10" fill="none"/><path d="M147.773 189.094h7v11h-7zm0 0" fill="#fff"/><use xlink:href="#c" x="147.773" y="197.757" fill="#00f"/><path d="M171.418 194.69l5.203-8.913" stroke-width="1.2" stroke="#000" stroke-miterlimit="10" fill="none"/><path d="M176.62 185.777l5.204-8.91" stroke-width="1.2" stroke="#00f" stroke-miterlimit="10" fill="none"/><path d="M168.262 190.46l4.164-7.132" stroke-width="1.2" stroke="#000" stroke-miterlimit="10" fill="none"/><path d="M172.426 183.328l4.164-7.13" stroke-width="1.2" stroke="#00f" stroke-miterlimit="10" fill="none"/><path d="M171.418 194.69l5.117 8.966" stroke-width="1.2" stroke="#000" stroke-miterlimit="10" fill="none"/><path d="M176.535 203.656l5.117 8.965M181.824 176.867l-5.117-8.965" stroke-width="1.2" stroke="#00f" stroke-miterlimit="10" fill="none"/><path d="M176.707 167.902l-5.117-8.964" stroke-width="1.2" stroke="#000" stroke-miterlimit="10" fill="none"/><path d="M178.824 171.367h7v11h-7zm0 0" fill="#fff"/><use xlink:href="#c" x="178.824" y="180.03" fill="#00f"/><path d="M171.59 158.938l-20.64-.102M169.504 163.785l-16.516-.082M171.59 158.938l10.41-17.83M182 141.11l20.645.1M202.645 141.21l10.41-17.827M213.055 123.383l20.64.1M233.695 123.484l10.41-17.828M244.105 105.656l20.645.102" stroke-width="1.2" stroke="#000" stroke-miterlimit="10" fill="none"/><path d="M172.652 204.62h19v16h-19zm0 0" fill="#fff"/><g fill="#00f"><use xlink:href="#c" x="172.652" y="213.284"/><use xlink:href="#b" x="179.63" y="213.284"/></g><use xlink:href="#d" x="186.645" y="218.167" fill="#00f"/></g></svg>
